X:1
T:Wees gegroet! Volschoone Lentetijd.
T:Catharina van Rennes. arr. Wim Verkaik
T:Wees gegroet! Volschoone Lentetijd.
C:Catharina van Rennes.
%%score [ 1 2 3 4 ]
L:1/8
Q:1/4=75
M:3/4
K:Bb
V:1 treble nm="Soprano" snm="S"
V:2 treble nm="Alto" snm="A"
V:3 treble-8 nm="Tenor" snm="T"
V:4 bass nm="Bass" snm="B"
V:1
 FF | F>D FB GB | F>D F2 FF | E>E GG c>d | e4 AG | F>D FB GB | d>B F2 FG | A>B c^c d>=c | f4 FF | %9
w: Als de|win- ter vlucht _ voor de|len- te- lucht en de|zon het nieu- we le- ven|wekt; Als een|bloe- sem- kroon _ met haar|tee- der schoon In den|hof de naak- te twij- gen|dekt, Dan zingt|
w: Ja, ons|har- te gloeit, _ nu 'tvi-|ool- tje bloeit, nu ons|'tma- de- lief- je te- gen-|lacht; En met|blij- den klank _ breng- en|w'on- zen dank Voor der|zon- ne glans, der bloe- men-|pracht, Zoo weer-|
 G>F GA Bc | d>F B2 BB | e>d dc cB | A>c c2 F>c | c2 B2 B>f | f2 e2 dd | c>G ed c>d | B4 z2 :| %17
w: al wat leeft en zing- en|kan ver- blijd: "Wees ge-|groet, vol- schoo- * ne _|len- te- tijd, Wees ge-|groet! _ Wees ge-|groet! _ Wees ge-|groet vol- schoo- ne len- te-|tijd!"|
w: klin- k'ons vroo- lijk lied dan|wijd en zijd: 'kHeb u|lief, o schoo- * ne _|len- te- tijd, 'kHeb u|lief! _ 'kHeb u|lief! _ 'kHeb u|lief, o schoo- ne len- te-|tijd!|
V:2
 FE | D>B, D2 EG | D>B, D2 DD | C>C EG c>B | A4 FE | D>B, D2 EG | F>D D2 _DD | C>G AA B>B | A4 FF | %9
w: Als de|win- ter vlucht voor de|len- te- lucht en de|zon het nieu- we le- ven|wekt; Als een|bloe- sem- kroon met haar|tee- der schoon In den|hof de naak- te twij- gen|dekt, Dan zingt|
w: Ja, ons|har- te gloeit, nu 'tvi-|ool- tje bloeit, nu ons|'tma- de- lief- je te- gen-|lacht; En met|blij- den klank breng- en|w'on- zen dank Voor der|zon- ne glans, der bloe- men-|pracht, Zoo weer-|
 E>D EF GA | B>F D2 BA | G>F FE E=E | F>A A2 F>E | E2 D2 B>_A | _A2 G2 FF | E>E GG A>A | B4 z2 :| %17
w: al wat leeft en zing- en|kan ver- blijd: "Wees ge-|groet, vol- schoo- * ne _|len- te- tijd, Wees ge-|groet! _ Wees ge-|groet! _ Wees ge-|groet vol- schoo- ne len- te-|tijd!"|
w: klin- k'ons vroo- lijk lied dan|wijd en zijd: 'kHeb u|lief, o schoo- * ne _|len- te- tijd, 'kHeb u|lief! _ 'kHeb u|lief! _ 'kHeb u|lief, o schoo- ne len- te-|tijd!|
V:3
 FF | D>D D2 EE | F>F F2 BB | G>c ee f>f | f4 FF | D>D D2 EE | F>F F2 BB | c>c c=e f>e | c4 z2 | %9
w: Als de|win- ter vlucht voor de|len- te- lucht en de|zon het nieu- we le- ven|wekt; Als een|bloe- sem- kroon met haar|tee- der schoon In den|hof de naak- te twij- gen|dekt,|
w: Ja, ons|har- te gloeit, nu 'tvi-|ool- tje bloeit, nu ons|'tma- de- lief- je te- gen-|lacht; En met|blij- den klank breng- en|w'on- zen dank Voor der|zon- ne glans, der bloe- men-|pracht,|
 z6 | z2 z2 BB | B>B B2 B2 | F>F F2 A>A | F2 f2 f>f | B4 ff | FG cB fe | d4 z2 :| %17
w: |"Wees ge-|groet, vol- schoo- ne|len- te- tijd, Wees ge-|groet! _ Wees ge-|groet! Wees ge-|groet vol- schoo- ne len- te-|tijd!"|
w: |'kHeb u|lief, o schoo- ne|len- te- tijd, 'kHeb u|lief! _ 'kHeb u|lief! 'kHeb u|lief, o schoo- ne len- te|tijd!|
V:4
 F,E, | B,,>B,, B,,2 B,,B,, | B,,>B,, B,,2 B,,B,, | C,>C, C,C, E,>E, | F,4 F,E, | %5
w: Als de|win- ter vlucht voor de|len- te- lucht en de|zon het nieu- we le- ven|wekt; Als een|
w: Ja, ons|har- te gloeit, nu 'tvi-|ool- tje bloeit, nu ons|'tma- de- lief- je te- gen-|lacht; En met|
 B,,>B,, B,,2 B,,B,, | B,,>B,, B,,2 F,=E, | F,>F, F,A, G,>C, | F,4 z2 | z6 | z6 | z6 | %12
w: bloe- sem- kroon met haar|tee- der schoon In den|hof de naak- te twij- gen|dekt,||||
w: blij- den klank breng- en|w'on- zen dank Voor der|zon- ne glans, der bloe- men-|pracht,||||
 z2 z2 F,>F, | B,,2 B,2 B,>B, | E,2 ED CB, | A,G, F,E, D,C, | B,,4 z2 :| %17
w: Wees ge-|groet! _ Wees ge-|groet! _ _ Wees ge-|groet vol- schoo- ne len- te-|tijd!"|
w: 'kHeb u|lief! _ 'kHeb u|lief! _ _ 'kHeb u|lief, o schoo- ne len- te|tijd!|

